src/pos-icons/chevron-left-circle-outline.svg

<svg height="24" viewBox="0 0 24 24" width="24" xmlns="http://www.w3.org/2000/svg"><path d="m22 12a10 10 0 0 1 -10 10 10 10 0 0 1 -10-10 10 10 0 0 1 10-10 10 10 0 0 1 10 10m-2 0a8 8 0 0 0 -8-8 8 8 0 0 0 -8 8 8 8 0 0 0 8 8 8 8 0 0 0 8-8m-4.6 4.6-4.6-4.6 4.6-4.6-1.4-1.4-6 6 6 6z"/></svg>

<?xml version="1.0" encoding="UTF-8"?><!DOCTYPE svg PUBLIC "-//W3C//DTD SVG 1.1//EN" "http://www.w3.org/Graphics/SVG/1.1/DTD/svg11.dtd"><svg xmlns="http://www.w3.org/2000/svg" xmlns:xlink="http://www.w3.org/1999/xlink" version="1.1" id="mdi-chevron-left-circle-outline" width="24" height="24" viewBox="0 0 24 24"><path d="M22,12A10,10 0 0,1 12,22A10,10 0 0,1 2,12A10,10 0 0,1 12,2A10,10 0 0,1 22,12M20,12A8,8 0 0,0 12,4A8,8 0 0,0 4,12A8,8 0 0,0 12,20A8,8 0 0,0 20,12M15.4,16.6L10.8,12L15.4,7.4L14,6L8,12L14,18L15.4,16.6Z" /></svg>
